P3
# 8x8 rubber belt texture with roller streaks
8 8
255
42 48 58 48 55 66 42 48 58 36 41 50 42 48 58 48 55 66 42 48 58 36 41 50
50 57 68 55 63 75 50 57 68 44 50 60 50 57 68 55 63 75 50 57 68 44 50 60
42 48 58 48 55 66 42 48 58 36 41 50 42 48 58 48 55 66 42 48 58 36 41 50
31 36 44 36 41 50 31 36 44 28 32 39 31 36 44 36 41 50 31 36 44 28 32 39
42 48 58 48 55 66 42 48 58 36 41 50 42 48 58 48 55 66 42 48 58 36 41 50
50 57 68 55 63 75 50 57 68 44 50 60 50 57 68 55 63 75 50 57 68 44 50 60
42 48 58 48 55 66 42 48 58 36 41 50 42 48 58 48 55 66 42 48 58 36 41 50
31 36 44 36 41 50 31 36 44 28 32 39 31 36 44 36 41 50 31 36 44 28 32 39
