P3
# 8x8 red crate texture with yellow stripe and dark scuff
8 8
255
220 65 55 220 65 55 251 191 36 251 191 36 220 65 55 220 65 55 220 65 55 220 65 55
220 65 55 220 65 55 251 191 36 251 191 36 220 65 55 220 65 55 220 65 55 220 65 55
196 48 45 196 48 45 251 191 36 251 191 36 196 48 45 196 48 45 84 32 31 84 32 31
220 65 55 220 65 55 251 191 36 251 191 36 220 65 55 84 32 31 84 32 31 220 65 55
220 65 55 220 65 55 251 191 36 251 191 36 84 32 31 84 32 31 220 65 55 220 65 55
196 48 45 196 48 45 251 191 36 251 191 36 196 48 45 196 48 45 196 48 45 196 48 45
220 65 55 220 65 55 251 191 36 251 191 36 220 65 55 220 65 55 220 65 55 220 65 55
220 65 55 220 65 55 251 191 36 251 191 36 220 65 55 220 65 55 220 65 55 220 65 55
